X: 1128
T: The Reel Of Mullinavat
B: steve tunes
M:4/4
Q: 1/4=110
K:Em
V:1 
ef|:"Em"gfed "Bm"B3A|"G"GBAG| "Em"E3F|"Em"GEE2 GFGB|
"Em"eBBAB2ef|"Em"gfed "Bm"B3A|"G"GBAG "Em"E3F|"Em"GEE2 GFGA|1 Bgfge2ef :|
|2 Bgfge2zf ||:"Em"gBB2 "G"gabg|"D"afdf afdf|"Em"gB~B2 "G"gabg|"D"afdf "Em"e3f|
"Em" g2gf gbag|"D"fede fga2|"Em"bgaf gfed|"Em"Bg"D"fg "Em"e3f:| 
% abcbook-tune_id 629b8567de9fc471f89877f2


% abcbook-boost 8
% abcbook-tablature 
% abcbook-transpose 
% abcbook-lastupdated 1665490212879
% abcbook-soundfonts 
% abcbook-repeats 3


